X:1
T:Keck, 12.10.12.4
T:Keck, 12.10.12.4
T:Ronald Alan Matthews, 1985
T:© 1990 RAM Music Publications Courtesy of the Cyber Hymnal™
C:Ronald Alan Matthews, 1985
Z:© 1990 RAM Music Publications
Z:Courtesy of the Cyber Hymnal™
%%score ( 1 2 ) 3
L:1/8
Q:1/4=110
M:3/4
K:Eb
V:1 treble 
V:2 treble 
V:3 bass 
V:1
 [EG]2 [CF]2 [EG]2 | [FA]3 [EG] [_DF]2 | [FB]2 [FA]2 [EG]2 | [CF]3 [EG] [EA]2 | [EG]2 [DG]2 [FA]2 | %5
 [FB]6 | [_G_d]2 [Gd]2 [Fd]2 | [Ac]2 [AB]2 [FA]2 | [_G_c]2 [Gc]2 [Gc]2 | B3 z A [D=G]2 | %10
 [_CE]2 [EF]2 [E_G]2 | A3 z _G [EF]2 | [EB]2 [CG]2 [DF]2 | [B,E]6 |] %14
V:2
 x6 | x6 | x6 | x6 | x6 | x6 | x6 | x6 | x6 | _G2 F2 x3 | x6 | E2 E2 x3 | x6 | x6 |] %14
V:3
 [E,B,]2 [F,A,]2 [E,B,]2 | [_D,_D]2 [D,B,]2 [D,A,]2 | [D,B,]2 [F,C]2 [C,C]2 | %3
 [F,A,]2 [C,C]2 [A,,C]2 | [E,B,]2 [G,B,]2 [F,C]2 | [B,,_D]6 | [_G,,B,]2 [G,,B,]2 [G,,B,]2 | %7
 [A,,E]2 [C,E]2 [_D,_D]2 | [_C,E]2 [C,E]2 [C,_C]2 | [_G,_D]2 [G,_C]2 [G,B,]2 x | %10
 [_C,_G,]2 [A,,_C]2 [_G,,B,]2 | [F,,_C]2 [_G,,C]2 [A,,C]2 x | [G,,B,]2 [A,,A,]2 [B,,A,]2 | %13
 [E,G,]6 |] %14

